img/q1.svg

<svg width="267" height="93" viewBox="0 0 267 93" fill="none" xmlns="http://www.w3.org/2000/svg">
<g clip-path="url(#clip0)">
<path fill-rule="evenodd" clip-rule="evenodd" d="M169.49 39.83C172.073 39.7442 174.645 40.1969 177.043 41.1592C179.441 42.1216 181.613 43.5727 183.42 45.42C185.213 47.2442 186.62 49.4105 187.558 51.7899C188.496 54.1693 188.946 56.7132 188.88 59.27C188.94 61.8216 188.488 64.3593 187.55 66.7331C186.612 69.1069 185.208 71.2684 183.42 73.09C181.616 74.9438 179.446 76.4011 177.048 77.3688C174.649 78.3365 172.075 78.7933 169.49 78.71C166.162 78.7347 162.887 77.8754 160 76.22C157.208 74.659 154.908 72.3488 153.36 69.55L157.7 67.09C158.766 69.1591 160.423 70.8647 162.46 71.99C164.484 73.2135 166.781 73.9103 169.144 74.0169C171.506 74.1234 173.857 73.6362 175.983 72.5998C178.108 71.5635 179.94 70.011 181.311 68.0842C182.682 66.1574 183.548 63.9178 183.83 61.57H164.51V56.91H183.79C183.405 53.4342 181.714 50.2343 179.059 47.9581C176.404 45.682 172.984 44.4995 169.49 44.65C167.035 44.6297 164.618 45.2648 162.49 46.49C160.442 47.6568 158.778 49.3941 157.7 51.49L153.36 48.97C154.915 46.1737 157.213 43.8619 160 42.29C162.889 40.6526 166.159 39.8042 169.48 39.83H169.49ZM220.75 73.3H224.75V85.19H219.75V78H195V85.18H190V73.3H193.27C195.59 70.4134 196.75 66.02 196.75 60.12V40.52H220.69V73.3H220.75ZM198.95 73.3H215.77V45.18H201.77V60.18C201.77 65.86 200.823 70.2167 198.93 73.25L198.95 73.3ZM261.1 73C258.386 75.7323 254.92 77.5953 251.144 78.3521C247.368 79.1088 243.452 78.7252 239.894 77.2498C236.337 75.7745 233.299 73.2743 231.166 70.0672C229.034 66.8602 227.904 63.0913 227.92 59.24C227.861 56.6534 228.32 54.081 229.269 51.6741C230.219 49.2672 231.639 47.0742 233.448 45.2241C235.257 43.3739 237.417 41.9038 239.802 40.9001C242.186 39.8964 244.748 39.3794 247.335 39.3794C249.922 39.3794 252.484 39.8964 254.868 40.9001C257.253 41.9038 259.413 43.3739 261.222 45.2241C263.031 47.0742 264.451 49.2672 265.401 51.6741C266.35 54.081 266.809 56.6534 266.75 59.24C266.796 61.7976 266.319 64.3377 265.347 66.704C264.375 69.0703 262.93 71.2129 261.1 73ZM237 69.63C239.756 72.3236 243.456 73.8318 247.31 73.8318C251.164 73.8318 254.864 72.3236 257.62 69.63C258.977 68.2744 260.045 66.657 260.759 64.8761C261.472 63.0952 261.816 61.188 261.77 59.27C261.82 57.3427 261.477 55.4254 260.764 53.6343C260.051 51.8431 258.981 50.2155 257.62 48.85C254.864 46.1565 251.164 44.6483 247.31 44.6483C243.456 44.6483 239.756 46.1565 237 48.85C235.639 50.2155 234.569 51.8431 233.856 53.6343C233.143 55.4254 232.8 57.3427 232.85 59.27C232.804 61.188 233.148 63.0952 233.861 64.8761C234.575 66.657 235.643 68.2744 237 69.63Z" fill="white"/>
<path fill-rule="evenodd" clip-rule="evenodd" d="M7.79 26.54H138.18V85C138.18 87.0661 137.359 89.0475 135.898 90.5084C134.437 91.9693 132.456 92.79 130.39 92.79H7.79C5.72396 92.79 3.74255 91.9693 2.28164 90.5084C0.82073 89.0475 0 87.0661 0 85L0 34.33C0 32.264 0.82073 30.2826 2.28164 28.8217C3.74255 27.3608 5.72396 26.54 7.79 26.54V26.54Z" fill="#009EE3"/>
<path fill-rule="evenodd" clip-rule="evenodd" d="M154.38 19.48C157 16 158.26 10 156.22 0C130.48 4 136 17.91 138.46 22.26C142.251 16.3819 146.722 10.9712 151.78 6.14C148.351 11.0938 145.385 16.3527 142.92 21.85C146.39 17.85 150.46 17.64 154.38 19.48V19.48ZM162.48 27.64C151.2 40.36 145.15 33.32 142.9 29.5C146.403 28.3347 150.092 27.8262 153.78 28C150.057 26.8504 146.162 26.3597 142.27 26.55C143.64 23.26 149.28 13.55 162.48 27.64Z" fill="#85BC22"/>
<path fill-rule="evenodd" clip-rule="evenodd" d="M78.76 41.08H82.15V44.47H78.76V41.08ZM30.21 62.32L38.63 41.08H44.23L31.29 71.57C29.39 76.04 26.9 78.02 22.29 78.2C19.899 78.2363 17.5231 77.8154 15.29 76.96V72.69C19.66 73.97 20.23 74.12 21.79 74.09C23.92 74.09 25.72 72.95 27.79 68.17L15.32 41.08H20.73L30.21 62.32V62.32ZM66.92 78.2H62.25V68.33C60.1972 68.8708 58.0829 69.143 55.96 69.14C49.41 69.14 45.52 65.76 45.46 59.08V51H50.11V59.27C50.11 63.33 52.11 65.1 55.96 65.1C58.0829 65.103 60.1972 64.8308 62.25 64.29V51H66.92V78.2ZM85.52 78.2C76.8 78.2 72.58 72.48 72.58 64.51C72.58 57.51 77.09 51.02 84.92 51.02C94.68 51.02 96.53 58.15 96.53 65.9H76.88C76.8751 67.0418 77.1014 68.1728 77.5452 69.2248C77.9891 70.2769 78.6413 71.2282 79.4626 72.0215C80.2839 72.8147 81.2573 73.4335 82.3241 73.8406C83.3909 74.2476 84.5291 74.4345 85.67 74.39C87.1054 74.4507 88.5352 74.176 89.8458 73.5875C91.1564 72.999 92.3118 72.1131 93.22 71L96.22 73.13C93.82 76.51 90.2534 78.2 85.52 78.2V78.2ZM84.92 54.69C80.37 54.69 77.56 58.26 77.04 62.23H92.23C92.23 58.16 89.48 54.69 84.92 54.69V54.69ZM122.85 54.78H113.73V78.2H109.08V54.78H100.08V51H122.8V54.76L122.85 54.78ZM87 41.11H90.39V44.5H87V41.11Z" fill="white"/>
</g>
<defs>
<clipPath id="clip0">
<rect width="266.75" height="92.76" fill="white"/>
</clipPath>
</defs>
</svg>

<svg width="267" height="93" viewBox="0 0 267 93" fill="none" xmlns="http://www.w3.org/2000/svg"><g clip-path="url(#a)" fill-rule="evenodd" clip-rule="evenodd"><path d="M169.49 39.83a18.62 18.62 0 0 1 13.93 5.59 19.057 19.057 0 0 1 5.46 13.85 19.087 19.087 0 0 1-5.46 13.82 18.608 18.608 0 0 1-13.93 5.62 18.798 18.798 0 0 1-9.49-2.49 17.154 17.154 0 0 1-6.64-6.67l4.34-2.46a11.742 11.742 0 0 0 4.76 4.9 14.15 14.15 0 0 0 21.37-10.42h-19.32v-4.66h19.28a13.791 13.791 0 0 0-14.3-12.26 13.802 13.802 0 0 0-7 1.84 12.15 12.15 0 0 0-4.79 5l-4.34-2.52a17.35 17.35 0 0 1 6.64-6.68 18.93 18.93 0 0 1 9.48-2.46h.01zm51.26 33.47h4v11.89h-5V78H195v7.18h-5V73.3h3.27c2.32-2.887 3.48-7.28 3.48-13.18v-19.6h23.94V73.3h.06zm-21.8 0h16.82V45.18h-14v15c0 5.68-.947 10.037-2.84 13.07l.02.05zm62.15-.3a19.41 19.41 0 0 1-33.18-13.76 19.42 19.42 0 1 1 38.83 0A18.756 18.756 0 0 1 261.1 73zM237 69.63a14.75 14.75 0 0 0 20.62 0 14.17 14.17 0 0 0 4.15-10.36 14.24 14.24 0 0 0-4.15-10.42 14.75 14.75 0 0 0-20.62 0 14.236 14.236 0 0 0-4.15 10.42A14.17 14.17 0 0 0 237 69.63z" fill="#fff"/><path d="M7.79 26.54h130.39V85a7.79 7.79 0 0 1-7.79 7.79H7.79A7.79 7.79 0 0 1 0 85V34.33a7.79 7.79 0 0 1 7.79-7.79z" fill="#009EE3"/><path d="M154.38 19.48C157 16 158.26 10 156.22 0 130.48 4 136 17.91 138.46 22.26a88.993 88.993 0 0 1 13.32-16.12 98.191 98.191 0 0 0-8.86 15.71c3.47-4 7.54-4.21 11.46-2.37zm8.1 8.16c-11.28 12.72-17.33 5.68-19.58 1.86a29.997 29.997 0 0 1 10.88-1.5 33.47 33.47 0 0 0-11.51-1.45c1.37-3.29 7.01-13 20.21 1.09z" fill="#85BC22"/><path d="M78.76 41.08h3.39v3.39h-3.39v-3.39zM30.21 62.32l8.42-21.24h5.6L31.29 71.57c-1.9 4.47-4.39 6.45-9 6.63a18.772 18.772 0 0 1-7-1.24v-4.27c4.37 1.28 4.94 1.43 6.5 1.4 2.13 0 3.93-1.14 6-5.92L15.32 41.08h5.41l9.48 21.24zM66.92 78.2h-4.67v-9.87c-2.053.54-4.167.813-6.29.81-6.55 0-10.44-3.38-10.5-10.06V51h4.65v8.27c0 4.06 2 5.83 5.85 5.83 2.123.003 4.237-.27 6.29-.81V51h4.67v27.2zm18.6 0c-8.72 0-12.94-5.72-12.94-13.69 0-7 4.51-13.49 12.34-13.49 9.76 0 11.61 7.13 11.61 14.88H76.88a8.46 8.46 0 0 0 8.79 8.49A9.24 9.24 0 0 0 93.22 71l3 2.13c-2.4 3.38-5.967 5.07-10.7 5.07zm-.6-23.51c-4.55 0-7.36 3.57-7.88 7.54h15.19c0-4.07-2.75-7.54-7.31-7.54zm37.93.09h-9.12V78.2h-4.65V54.78h-9V51h22.72v3.76l.05.02zM87 41.11h3.39v3.39H87v-3.39z" fill="#fff"/></g><defs><clipPath id="a"><path fill="#fff" d="M0 0h266.75v92.76H0z"/></clipPath></defs></svg>
